public/static/icons/shield.svg

<svg height="24" viewBox="0 0 24 24" width="24" xmlns="http://www.w3.org/2000/svg"><path d="m22.287 4.042-10-3a.985.985 0 0 0 -.574 0l-10 3a1 1 0 0 0 -.713.958c0 13.521 10.522 17.886 10.628 17.929a1.01 1.01 0 0 0 .744 0c.106-.043 10.628-4.408 10.628-17.929a1 1 0 0 0 -.713-.958zm-7.2 11.469-3.087-1.625-3.09 1.625.59-3.441-2.5-2.437 3.455-.5 1.545-3.133 1.545 3.131 3.455.5-2.5 2.439z" fill="#283440"/></svg>

<svg xmlns="http://www.w3.org/2000/svg" width="24" height="24" viewBox="0 0 24 24"><g class="nc-icon-wrapper" fill="#283440"><path d="M22.287,4.042l-10-3a.985.985,0,0,0-.574,0l-10,3A1,1,0,0,0,1,5C1,18.521,11.522,22.886,11.628,22.929a1.01,1.01,0,0,0,.744,0C12.478,22.886,23,18.521,23,5A1,1,0,0,0,22.287,4.042Zm-7.2,11.469L12,13.886,8.91,15.511,9.5,12.07,7,9.633l3.455-.5L12,6l1.545,3.131,3.455.5L14.5,12.07Z" fill="#283440"/></g></svg>
